Origami/22x22/apps/synfig_icon.svg

<svg width="22" height="22" version="1.1" viewBox="0 0 5.82 5.82" xmlns="http://www.w3.org/2000/svg">
 <path d="m2.9180676 0.39699634c-0.018682-5.2e-4 -0.03673 0.006184-0.049663 0.0184478-0.1866085 0.17696998-0.376267 0.37553602-0.5476765 0.56453862-1.993e-4 2.372e-4 -3.96e-4 4.762e-4 -5.9e-4 7.15e-4 -0.4223952 0.47873784-0.7434522 0.97063824-0.9761215 1.4973185-0.2167393 0.4906201-0.3434606 1.0737546-0.45879446 1.6920212-0.025257 0.1353902-0.050779 0.299449-0.068386 0.4314638-0.0088 0.066007-0.015639 0.1239179-0.019511 0.1667466-0.00193 0.021415-0.00306 0.038983-0.00335 0.053194-1.432e-4 0.00711-1.659e-4 0.01303 5.9e-4 0.020418 3.786e-4 0.00369 7.35e-4 0.00764 0.00276 0.014328 0.00202 0.00669 3.725e-4 0.020279 0.029956 0.036896 0.015964 0.00897 0.018112 0.0072 0.022073 0.00806 0.00396 8.65e-4 0.00703 0.00149 0.010248 0.00197 0.00644 9.55e-4 0.013279 0.00157 0.021087 0.00232 0.015617 0.00151 0.034955 0.00292 0.055379 0.00394 0.66314786 0.074899 1.4264586 0.345825 1.8812945 0.7260075 0.014176 0.01175 0.025949 0.021415 0.035277 0.028655 0.00467 0.0036 0.00861 0.00657 0.01281 0.00949 0.0021 0.00145 0.00413 0.00295 0.00769 0.00502 0.00178 1e-3 0.00395 0.0022 0.00788 0.00395 0.00393 0.0017 0.00784 0.0051 0.026014 0.00591 0.021772 9.499e-4 0.02629-0.00335 0.030744-0.00519 0.00445-0.0018 0.00674-0.00305 0.00867-0.0041 0.00386-0.00215 0.00603-0.00365 0.00828-0.00519 0.00449-0.00305 0.00856-0.00617 0.013598-0.01003 0.010086-0.00771 0.022967-0.01816 0.03843-0.03081 0.5707638-0.4036997 1.3509811-0.6822081 1.9173552-0.7289112l0.04257-0.00322c0.03422-0.0026 0.060533-0.028612 0.060502-0.059821v-0.022738c4e-7 -0.047421-0.012415-0.1453628-0.029165-0.2666872-0.0167546-0.1213234-0.0381794-0.2594141-0.0575491-0.3642984-0.1151977-0.6238255-0.2461676-1.2218957-0.4656924-1.7187078-0.1977614-0.4475586-0.4808839-0.8996595-0.8192477-1.3088987-7.6e-4 -9.2e-4 -0.00155-0.00181-0.00236-0.00269-0.2277629-0.24501814-0.4480721-0.50218654-0.6883938-0.74059533-0.0120254-0.01197757-0.0288747-0.01902044-0.0467072-0.01952243z" style="opacity:.2"/>
 <path d="m2.9180676 0.26474402c-0.018682-5.2e-4 -0.03673 0.006184-0.049663 0.0184478-0.1866085 0.17696998-0.376267 0.37553613-0.5476765 0.56453874-1.993e-4 2.372e-4 -3.96e-4 4.762e-4 -5.9e-4 7.15e-4 -0.4223952 0.47873784-0.7434522 0.97063824-0.9761215 1.4973185-0.2167393 0.49062-0.3434606 1.0737545-0.45879446 1.6920211-0.025257 0.1353902-0.050779 0.299449-0.068386 0.4314638-0.0088 0.066007-0.015639 0.1239179-0.019511 0.1667466-0.00193 0.021415-0.00306 0.038983-0.00335 0.053194-1.432e-4 0.00711-1.659e-4 0.01303 5.9e-4 0.020418 3.786e-4 0.00369 7.35e-4 0.00764 0.00276 0.014328 0.00202 0.00669 3.725e-4 0.020279 0.029956 0.036896 0.015964 0.00897 0.018112 0.0072 0.022073 0.00806 0.00396 8.65e-4 0.00703 0.00149 0.010248 0.00197 0.00644 9.55e-4 0.013279 0.00157 0.021087 0.00232 0.015617 0.00151 0.034955 0.00292 0.055379 0.00394 0.66314786 0.074899 1.4264586 0.345825 1.8812945 0.7260075 0.014176 0.01175 0.025949 0.021415 0.035277 0.028655 0.00467 0.0036 0.00861 0.00657 0.01281 0.00949 0.0021 0.00145 0.00413 0.00295 0.00769 0.00502 0.00178 1e-3 0.00395 0.0022 0.00788 0.00395 0.00393 0.0017 0.00784 0.0051 0.026014 0.00591 0.021772 9.499e-4 0.02629-0.00335 0.030744-0.00519 0.00445-0.0018 0.00674-0.00305 0.00867-0.0041 0.00386-0.00215 0.00603-0.00365 0.00828-0.00519 0.00449-0.00305 0.00856-0.00617 0.013598-0.01003 0.010086-0.00771 0.022967-0.01816 0.03843-0.03081 0.5707638-0.4036997 1.3509811-0.6822081 1.9173552-0.7289112l0.04257-0.00322c0.03422-0.0026 0.060533-0.028612 0.060502-0.059821v-0.0227383c4e-7 -0.0474209-0.012415-0.1453628-0.0291648-0.2666872-0.0167548-0.1213231-0.0381796-0.2594138-0.0575493-0.3642981-0.1151977-0.6238255-0.2461676-1.2218957-0.4656924-1.7187077-0.1977614-0.4475586-0.4808839-0.8996595-0.8192477-1.3088987-7.6e-4 -9.2e-4 -0.00155-0.00181-0.00236-0.00269-0.2277629-0.24501814-0.4480721-0.50218666-0.6883938-0.74059545-0.0120254-0.01197757-0.0288747-0.01902044-0.0467072-0.01952243z" style="fill:#0278dc"/>
 <path d="m2.9182676 0.26458332c-0.018682-5.1858e-4 -0.036676 0.00634-0.049609 0.0186034-0.1580265 0.14986432-0.3161386 0.31505761-0.4656051 0.47697345l0.5090128 2.896981 0.504362-2.8923302c-0.00196-0.002162-0.00425-0.00404-0.0062-0.006201-0.1451467-0.16042996-0.2910652-0.32123186-0.445452-0.47438967-0.0120253-0.01197758-0.0286763-0.01913507-0.0465087-0.01963706zm-0.0062 3.3925579 1.5492595-1.33997c-0.1062458-0.2353245-0.2376167-0.4709113-0.3865409-0.7012492zl1.8908408-0.2671673c-0.0429548-0.1874816-0.0905579-0.3690863-0.1441791-0.5436362zl2.0815268 1.0996744c0.018875-0.010628 0.033612-0.026614 0.03359-0.048059v-0.022738c6e-7 -0.047421-0.012189-0.145326-0.028939-0.2666505-0.016753-0.1213231-0.038508-0.2594345-0.057878-0.3643188-0.00506-0.027397-0.010893-0.053841-0.01602-0.081132zl0.7570599 1.4696775c0.2039801-0.0926565 0.4122942-0.1693674 0.6154643-0.2284097zl-0.275952 1.7115234c0.064405 0.043233 0.1255268 0.087669 0.1813843 0.1343586 0.014176 0.01175 0.025813 0.021698 0.03514 0.028939 0.00467 0.0036 0.00872 0.00638 0.01292 0.0093 0.00209 0.00146 0.00419 0.0031 0.00775 0.00517 0.00177 0.00101 0.00382 0.00188 0.00775 0.00362 0.00393 0.00169 0.00766 0.00539 0.025839 0.0062 0.021772 9.525e-4 0.026552-0.00333 0.031006-0.00517 0.00445-0.0018 0.00686-0.00308 0.00878-0.00414 0.00386-0.00214 0.00602-0.00363 0.00827-0.00517 0.00449-0.00305 0.0084-0.00647 0.013436-0.010335 0.010086-0.00771 0.022778-0.017838 0.038241-0.030489 0.061938-0.043808 0.1274569-0.085367 0.1937866-0.1260906zl-1.3151651 1.2536701c0.1882785 0.0529344 0.3733189 0.1172885 0.5482851 0.1937867zl-2.0138305 0.3141927c-0.004244 0.022471-0.008709 0.044095-0.0129191 0.066663-0.0252569 0.1353902-0.0511227 0.2994835-0.0687296 0.4314981-0.0088 0.066007-0.0152482 0.1235694-0.0191204 0.1663981-0.001929 0.021415-0.003327 0.039016-0.003617 0.053227-1.432e-4 0.00711-2.3914e-4 0.013282 5.1593e-4 0.020672 3.7836e-4 0.00369 0.001077 0.00727 0.003101 0.013952 0.001582 0.00524 0.005292 0.015552 0.0191204 0.027388zl-1.7487304-0.8108035c-0.051417 0.167331-0.097057 0.3417242-0.1384923 0.5214154zl-1.1591036-2.052588c-0.14073 0.2163704-0.2626929 0.4377586-0.3684529 0.6650757z" style="fill-rule:evenodd;fill:#48a0f8"/>
 <path d="m2.9182676 0.26458332c-0.0186822-5.2123e-4 -0.0366763 0.00633968-0.0496094 0.01860338-0.1866085 0.17696998-0.3763608 0.37530402-0.5477702 0.56430664-1.993e-4 2.372e-4 -3.228e-4 7.9375e-4 -5.159e-4 0.001035-0.422396 0.47873646-0.7434993 0.97038456-0.9761686 1.4970649-0.2167393 0.49062-0.3435529 1.0741365-0.45888676 1.6924032-0.0252569 0.1353902-0.0511227 0.2994835-0.0687297 0.4314981-0.0088 0.066007-0.0152482 0.1235694-0.0191204 0.1663981-0.001929 0.021415-0.003327 0.039016-0.003617 0.053227-1.4319e-4 0.00711-2.3913e-4 0.013282 5.1594e-4 0.020672 3.7835e-4 0.00369 0.001077 0.00727 0.003101 0.013952 7.9904e-4 0.00265 0.001802 0.00732 0.003617 0.011885 0.004018-0.038999 0.008419-0.081221 0.015503-0.1343589 0.01760668-0.1320157 0.04347237-0.2955919 0.06872936-0.4309821 0.11533396-0.6182667 0.24214746-1.2017833 0.45888676-1.6924033 0.2326693-0.5266802 0.5537726-1.0183284 0.9761677-1.4970662 1.941e-4 -2.3879e-4 3.175e-4 -7.964e-4 5.16e-4 -0.001035 0.1714094-0.18900259 0.3611617-0.38733666 0.5477702-0.56430663 0.012933-0.0122637 0.030927-0.0191236 0.049609-0.0186034 0.017833 5.0271e-4 0.034483 0.007659 0.046509 0.0196371 0.2403219 0.23840877 0.4605671 0.49550515 0.6883302 0.74052331 8.202e-4 8.81e-4 0.00183 0.00166 0.00259 0.00258 0.3383639 0.4092392 0.6213101 0.8614055 0.8190714 1.3089639 0.2195247 0.4968121 0.350407 1.0949326 0.4656047 1.7187582 0.01937 0.1048843 0.041123 0.2429955 0.057878 0.3643188 0.011266 0.081597 0.01475 0.1271291 0.019637 0.1793171 0.00349-0.00733 0.00931-0.013764 0.0093-0.02222v-0.022738c6e-7 -0.047421-0.012189-0.1453261-0.028939-0.2666505-0.0167474-0.1213177-0.038502-0.2594291-0.0578716-0.3643134-0.1151977-0.6238256-0.2460799-1.2219461-0.4656047-1.7187581-0.1977612-0.4475585-0.4807074-0.8997248-0.8190714-1.308964-7.673e-4 -9.207e-4 -0.00177-0.0017-0.00259-0.00258-0.2277658-0.24502197-0.448011-0.50211836-0.6883329-0.74052712-0.0120253-0.01197758-0.0286763-0.01913507-0.0465087-0.01963706z" style="fill:#ffffff;opacity:.2"/>
</svg>

<svg xmlns="http://www.w3.org/2000/svg" width="22" height="22" version="1.1" viewBox="0 0 5.82 5.82">
 <path style="opacity:0.2" d="m 2.9180676,0.39699634 c -0.018682,-5.2e-4 -0.03673,0.006184 -0.049663,0.0184478 -0.1866085,0.17696998 -0.376267,0.37553602 -0.5476765,0.56453862 -1.993e-4,2.372e-4 -3.96e-4,4.762e-4 -5.9e-4,7.15e-4 C 1.8977429,1.4594356 1.5766859,1.951336 1.3440166,2.4780163 1.1272773,2.9686364 1.000556,3.5517709 0.88522214,4.1700375 c -0.025257,0.1353902 -0.050779,0.299449 -0.068386,0.4314638 -0.0088,0.066007 -0.015639,0.1239179 -0.019511,0.1667466 -0.00193,0.021415 -0.00306,0.038983 -0.00335,0.053194 -1.432e-4,0.00711 -1.659e-4,0.01303 5.9e-4,0.020418 3.786e-4,0.00369 7.35e-4,0.00764 0.00276,0.014328 0.00202,0.00669 3.725e-4,0.020279 0.029956,0.036896 0.015964,0.00897 0.018112,0.0072 0.022073,0.00806 0.00396,8.65e-4 0.00703,0.00149 0.010248,0.00197 0.00644,9.55e-4 0.013279,0.00157 0.021087,0.00232 0.015617,0.00151 0.034955,0.00292 0.055379,0.00394 0.66314786,0.074899 1.42645856,0.345825 1.88129446,0.7260075 0.014176,0.01175 0.025949,0.021415 0.035277,0.028655 0.00467,0.0036 0.00861,0.00657 0.01281,0.00949 0.0021,0.00145 0.00413,0.00295 0.00769,0.00502 0.00178,0.001 0.00395,0.0022 0.00788,0.00395 0.00393,0.0017 0.00784,0.0051 0.026014,0.00591 0.021772,9.499e-4 0.02629,-0.00335 0.030744,-0.00519 0.00445,-0.0018 0.00674,-0.00305 0.00867,-0.0041 0.00386,-0.00215 0.00603,-0.00365 0.00828,-0.00519 0.00449,-0.00305 0.00856,-0.00617 0.013598,-0.01003 0.010086,-0.00771 0.022967,-0.01816 0.03843,-0.03081 C 3.5775194,5.2293867 4.3577367,4.9508783 4.9241108,4.9041752 l 0.04257,-0.00322 c 0.03422,-0.0026 0.060533,-0.028612 0.060502,-0.059821 V 4.8183962 C 5.0271832,4.7709752 5.0147678,4.6730334 4.9980178,4.551709 4.9812632,4.4303856 4.9598384,4.2922949 4.9404687,4.1874106 4.825271,3.5635851 4.6943011,2.9655149 4.4747763,2.4687028 4.2770149,2.0211442 3.9938924,1.5690433 3.6555286,1.1598041 c -7.6e-4,-9.2e-4 -0.00155,-0.00181 -0.00236,-0.00269 C 3.4254057,0.91209596 3.2050965,0.65492756 2.9647748,0.41651877 2.9527494,0.4045412 2.9359001,0.39749833 2.9180676,0.39699634 Z"/>
 <path style="fill:#0278dc" d="m 2.9180676,0.26474402 c -0.018682,-5.2e-4 -0.03673,0.006184 -0.049663,0.0184478 -0.1866085,0.17696998 -0.376267,0.37553613 -0.5476765,0.56453874 -1.993e-4,2.372e-4 -3.96e-4,4.762e-4 -5.9e-4,7.15e-4 C 1.8977429,1.3271834 1.5766859,1.8190838 1.3440166,2.3457641 1.1272773,2.8363841 1.000556,3.4195186 0.88522214,4.0377852 c -0.025257,0.1353902 -0.050779,0.299449 -0.068386,0.4314638 -0.0088,0.066007 -0.015639,0.1239179 -0.019511,0.1667466 -0.00193,0.021415 -0.00306,0.038983 -0.00335,0.053194 -1.432e-4,0.00711 -1.659e-4,0.01303 5.9e-4,0.020418 3.786e-4,0.00369 7.35e-4,0.00764 0.00276,0.014328 0.00202,0.00669 3.725e-4,0.020279 0.029956,0.036896 0.015964,0.00897 0.018112,0.0072 0.022073,0.00806 0.00396,8.65e-4 0.00703,0.00149 0.010248,0.00197 0.00644,9.55e-4 0.013279,0.00157 0.021087,0.00232 0.015617,0.00151 0.034955,0.00292 0.055379,0.00394 0.66314786,0.074899 1.42645856,0.345825 1.88129446,0.7260075 0.014176,0.01175 0.025949,0.021415 0.035277,0.028655 0.00467,0.0036 0.00861,0.00657 0.01281,0.00949 0.0021,0.00145 0.00413,0.00295 0.00769,0.00502 0.00178,0.001 0.00395,0.0022 0.00788,0.00395 0.00393,0.0017 0.00784,0.0051 0.026014,0.00591 0.021772,9.499e-4 0.02629,-0.00335 0.030744,-0.00519 0.00445,-0.0018 0.00674,-0.00305 0.00867,-0.0041 0.00386,-0.00215 0.00603,-0.00365 0.00828,-0.00519 0.00449,-0.00305 0.00856,-0.00617 0.013598,-0.01003 0.010086,-0.00771 0.022967,-0.01816 0.03843,-0.03081 C 3.5775194,5.0971344 4.3577367,4.818626 4.9241108,4.7719229 l 0.04257,-0.00322 c 0.03422,-0.0026 0.060533,-0.028612 0.060502,-0.059821 V 4.6861436 C 5.0271832,4.6387227 5.0147678,4.5407808 4.998018,4.4194564 4.9812632,4.2981333 4.9598384,4.1600426 4.9404687,4.0551583 4.825271,3.4313328 4.6943011,2.8332626 4.4747763,2.3364506 4.2770149,1.888892 3.9938924,1.4367911 3.6555286,1.0275519 c -7.6e-4,-9.2e-4 -0.00155,-0.00181 -0.00236,-0.00269 C 3.4254057,0.77984376 3.2050965,0.52267524 2.9647748,0.28426645 2.9527494,0.27228888 2.9359001,0.26524601 2.9180676,0.26474402 Z"/>
 <path style="fill:#48a0f8;fill-rule:evenodd" d="m 2.9182676,0.26458332 c -0.018682,-5.1858e-4 -0.036676,0.00634 -0.049609,0.0186034 C 2.7106321,0.43305104 2.55252,0.59824433 2.4030535,0.76016017 L 2.9120663,3.6571412 3.4164283,0.76481105 c -0.00196,-0.002162 -0.00425,-0.00404 -0.0062,-0.006201 C 3.2650816,0.59818009 3.1191631,0.43737819 2.9647763,0.28422038 2.952751,0.2722428 2.9361,0.26508531 2.9182676,0.26458332 Z m -0.0062,3.39255788 1.5492595,-1.33997 C 4.3550813,2.0818467 4.2237104,1.8462599 4.0747862,1.615922 Z m 0,0 1.8908408,-0.2671673 C 4.7599536,3.2024923 4.7123505,3.0208876 4.6587293,2.8463377 Z m 0,0 2.0815268,1.0996744 c 0.018875,-0.010628 0.033612,-0.026614 0.03359,-0.048059 v -0.022738 c 6e-7,-0.047421 -0.012189,-0.145326 -0.028939,-0.2666505 -0.016753,-0.1213231 -0.038508,-0.2594345 -0.057878,-0.3643188 -0.00506,-0.027397 -0.010893,-0.053841 -0.01602,-0.081132 z m 0,0 0.7570599,1.4696775 C 3.8731076,5.0341622 4.0814217,4.9574513 4.2845918,4.898409 Z m 0,0 -0.275952,1.7115234 c 0.064405,0.043233 0.1255268,0.087669 0.1813843,0.1343586 0.014176,0.01175 0.025813,0.021698 0.03514,0.028939 0.00467,0.0036 0.00872,0.00638 0.01292,0.0093 0.00209,0.00146 0.00419,0.0031 0.00775,0.00517 0.00177,0.00101 0.00382,0.00188 0.00775,0.00362 0.00393,0.00169 0.00766,0.00539 0.025839,0.0062 0.021772,9.525e-4 0.026552,-0.00333 0.031006,-0.00517 0.00445,-0.0018 0.00686,-0.00308 0.00878,-0.00414 0.00386,-0.00214 0.00602,-0.00363 0.00827,-0.00517 0.00449,-0.00305 0.0084,-0.00647 0.013436,-0.010335 0.010086,-0.00771 0.022778,-0.017838 0.038241,-0.030489 0.061938,-0.043808 0.1274569,-0.085367 0.1937866,-0.1260906 z m 0,0 -1.3151651,1.2536701 C 1.785181,4.9637457 1.9702214,5.0280998 2.1451876,5.104598 Z m 0,0 -2.01383049,0.3141927 c -0.004244,0.022471 -0.008709,0.044095 -0.0129191,0.066663 -0.0252569,0.1353902 -0.0511227,0.2994835 -0.0687296,0.4314981 -0.0088,0.066007 -0.0152482,0.1235694 -0.0191204,0.1663981 -0.001929,0.021415 -0.003327,0.039016 -0.003617,0.053227 -1.432e-4,0.00711 -2.3914e-4,0.013282 5.1593e-4,0.020672 3.7836e-4,0.00369 0.001077,0.00727 0.003101,0.013952 0.001582,0.00524 0.005292,0.015552 0.0191204,0.027388 z m 0,0 -1.7487304,-0.8108035 c -0.051417,0.167331 -0.097057,0.3417242 -0.1384923,0.5214154 z m 0,0 L 1.752964,1.6045532 C 1.612234,1.8209236 1.4902711,2.0423118 1.3845111,2.2696289 Z"/>
 <path style="opacity:0.2;fill:#ffffff" d="M 2.9182676,0.26458332 C 2.8995854,0.26406209 2.8815913,0.270923 2.8686582,0.2831867 2.6820497,0.46015668 2.4922974,0.65849072 2.320888,0.84749334 c -1.993e-4,2.372e-4 -3.228e-4,7.9375e-4 -5.159e-4,0.001035 C 1.8979761,1.3272648 1.5768728,1.8189129 1.3442035,2.3455932 1.1274642,2.8362132 1.0006506,3.4197297 0.88531674,4.0379964 c -0.0252569,0.1353902 -0.0511227,0.2994835 -0.0687297,0.4314981 -0.0088,0.066007 -0.0152482,0.1235694 -0.0191204,0.1663981 -0.001929,0.021415 -0.003327,0.039016 -0.003617,0.053227 -1.4319e-4,0.00711 -2.3913e-4,0.013282 5.1594e-4,0.020672 3.7835e-4,0.00369 0.001077,0.00727 0.003101,0.013952 7.9904e-4,0.00265 0.001802,0.00732 0.003617,0.011885 0.004018,-0.038999 0.008419,-0.081221 0.015503,-0.1343589 C 0.83419326,4.469254 0.86005895,4.3056778 0.88531594,4.1702876 1.0006499,3.5520209 1.1274634,2.9685043 1.3442027,2.4778843 1.576872,1.9512041 1.8979753,1.4595559 2.3203704,0.98081812 c 1.941e-4,-2.3879e-4 3.175e-4,-7.964e-4 5.16e-4,-0.001035 0.1714094,-0.18900259 0.3611617,-0.38733666 0.5477702,-0.56430663 0.012933,-0.0122637 0.030927,-0.0191236 0.049609,-0.0186034 0.017833,5.0271e-4 0.034483,0.007659 0.046509,0.0196371 0.2403219,0.23840877 0.4605671,0.49550515 0.6883302,0.74052331 8.202e-4,8.81e-4 0.00183,0.00166 0.00259,0.00258 0.3383639,0.4092392 0.6213101,0.8614055 0.8190714,1.3089639 0.2195247,0.4968121 0.350407,1.0949326 0.4656047,1.7187582 0.01937,0.1048843 0.041123,0.2429955 0.057878,0.3643188 0.011266,0.081597 0.01475,0.1271291 0.019637,0.1793171 0.00349,-0.00733 0.00931,-0.013764 0.0093,-0.02222 V 4.6860135 C 5.0271865,4.6385925 5.0149969,4.5406874 4.9982469,4.419363 4.9814995,4.2980453 4.9597449,4.1599339 4.9403753,4.0550496 4.8251776,3.431224 4.6942954,2.8331035 4.4747706,2.3362915 4.2770094,1.888733 3.9940632,1.4365667 3.6556992,1.0273275 c -7.673e-4,-9.207e-4 -0.00177,-0.0017 -0.00259,-0.00258 C 3.4253434,0.77972553 3.2050982,0.52262914 2.9647763,0.28422038 2.952751,0.2722428 2.9361,0.26508531 2.9182676,0.26458332 Z"/>
</svg>
